src/pos-icons/head-alert-outline.svg

<svg height="24" viewBox="0 0 24 24" width="24" xmlns="http://www.w3.org/2000/svg"><path d="m13 3c3.88 0 7 3.14 7 7 0 2.8-1.63 5.19-4 6.31v4.69h-7v-3h-1c-1.11 0-2-.89-2-2v-3h-1.5c-.42 0-.66-.5-.42-.81l1.92-2.53c.19-3.71 3.23-6.66 7-6.66m0-2c-4.6 0-8.39 3.42-8.94 7.9l-1.56 2.1h-.03l-.02.03c-.55.76-.62 1.76-.19 2.59.36.69 1 1.17 1.74 1.32v1.06c0 1.85 1.28 3.42 3 3.87v3.13h11v-5.5c2.5-1.67 4-4.44 4-7.5 0-4.97-4.04-9-9-9m1 13h-2v-2h2zm0-4h-2v-5h2"/></svg>

<?xml version="1.0" encoding="UTF-8"?><!DOCTYPE svg PUBLIC "-//W3C//DTD SVG 1.1//EN" "http://www.w3.org/Graphics/SVG/1.1/DTD/svg11.dtd"><svg xmlns="http://www.w3.org/2000/svg" xmlns:xlink="http://www.w3.org/1999/xlink" version="1.1" id="mdi-head-alert-outline" width="24" height="24" viewBox="0 0 24 24"><path d="M13 3C16.88 3 20 6.14 20 10C20 12.8 18.37 15.19 16 16.31V21H9V18H8C6.89 18 6 17.11 6 16V13H4.5C4.08 13 3.84 12.5 4.08 12.19L6 9.66C6.19 5.95 9.23 3 13 3M13 1C8.4 1 4.61 4.42 4.06 8.9L2.5 11H2.47L2.45 11.03C1.9 11.79 1.83 12.79 2.26 13.62C2.62 14.31 3.26 14.79 4 14.94V16C4 17.85 5.28 19.42 7 19.87V23H18V17.5C20.5 15.83 22 13.06 22 10C22 5.03 17.96 1 13 1M14 14H12V12H14V14M14 10H12V5H14" /></svg>
